!!!COM: Anon.
!!!OTL: Song When Making the Brush Shelter
!!!ODT: <1918//
!!!MPN: Marolipa [Buffalo Bull Head, Ben Benson]
!!!MLC: Fort Berthold Reservation, North Dakota, United States of America
!! Song was recorded during either the summer of 1912, 1915, or 1918.
!!!AGN: monody
!!!AST: Songs Connected With Eagle Catching
!!!AMT: irregular
!!!RWG: Transcribed pitches, durations, and meters are only approximate.
!! Drum not recorded.
**kern
*ICvox
*Imale
*clefF4
*k[b-e-]
*M3/4
*MM80
8G
=1
8G
8G
4.G
8G
=2
8d
8d
4.d
8g
=3
8g
8d
4c
8c
8c
*M2/4
=4
8c
8d
4B-
*M3/4
=5
8G
8B-
4.B-
8d
*M2/4
=6
(12d
12c
12cc)
(12c
12B-
12c)
=7
8.c
16c
8c
8d
*M3/4
=8
4.B-
8B-
8d
8B-
*M2/4
=9
4.G
8G
*M3/4
=10
4.G
8B-
8d
8B-
=11
4.G
8B-
8d
8B-
=12
(8B-
8G)
(8B-
8G)
(8B-
8G)
==
*-
!!!CNT: Mandan
!!!TXO: Mandan
!!!OCY: United States
!!!OCL: Frances Densmore
!!!YOR: Frances Densmore, "Mandan and Hidatsa Music",
!!!YOR: Bulletin 80, page 74, No. 23
!!!PPR: Smithsonian Institution, Bureau of American Ethnology
!!!PPR: Government Printing Office
!!!PDT: 1923
!!!PPP: Washington, DC, United States of America
!!!YEC: Electronic Copyright 2000 David Huron
!!!YER: August 2000
!!!YEN: United States of America
!!!ENC: David Huron
!!!RDT: August 16, 2000
!!!EEV: Release 1.0
!!!AIN: tom, vox
